X:1
T:Title
%%score ( 1 2 ) ( 3 4 )
L:1/8
Q:1/4=100
M:4/4
K:C
V:1 treble nm="Grand Piano, Soprano"
V:2 treble 
V:3 bass nm="Choir Pad, Anniversary Song of Praise"
V:4 bass 
V:1
 [CE]2 [B,F]2 [CG]3 [Ec] | cBAB [Ec]2 [EG]2 | [DF]2 [CE]2 [B,D]3 [CE] | %3
w: By~John~Robson~Sweney * * *|||
 [DF][FA][EG][DF] [DF]2 [CE]2 | [EG]2 [Ec]2 [Ge]3 [Ge] | [^Ge]2 [Bd]2 [Ac]2 [FA]2 | %6
w: |||
 [EG]2 [Ec]2 [Dc][DB][FA][FB] | [Ec]6 z2 | [EG]4 [Ec]G/G/ GG | [Fd]4 [Ec]G/G/ GG | %10
w: ||||
 [Ge]2 [Gc]2 [FA]2 [Fc]2 | [EG]6 z2 | G4 .[Gf]2 z2 | [Ge]4 .[Ec]2 z2 | [FA]2 [Fd]2 [Ec][DB]AB | %15
w: |||||
 [Ec]8 |] %16
w: |
V:2
 x8 | D2 F2 z4 | x8 | x8 | x8 | x8 | x8 | x8 | x8 | x8 | x8 | x8 | x8 | x8 | z4 z2 F2 | x8 |] %16
V:3
 [C,G,]2 [D,G,]2 [E,G,]3 [C,G,] | G,2 [G,,G,]2 [C,G,]2 [C,C]2 | [G,B,]2 G,2 G,3 [G,,G,] | %3
 [G,,G,]2 [G,,G,]2 [C,G,]2 [C,G,]2 | [C,C]2 [C,G,]2 [C,C]3 [C,C] | z4 A,2 z2 | %6
 [G,C]2 G,2 [G,,G,][G,,G,][G,,G,][G,,G,] | [C,G,]6 z2 | [C,C]4 .[C,G,]2 z2 | [G,B,]4 .[C,C]2 z2 | %10
 [C,C]2 [E,C]2 [F,C]2 [A,C]2 | C6 (3G,E,C, | [G,B,]4 [B,D]DB,G, | C4 [C,G,]C,D,E, | %14
 [F,C]2 [F,A,]2 G,2 [G,,G,]2 | [C,G,]8 |] %16
V:4
 x8 | x8 | x8 | x8 | x8 | [E,B,]2 [E,^G,]2 F,2- [F,C]2 | x8 | x8 | x8 | x8 | x8 | x8 | x8 | x8 | %14
 x8 | x8 |] %16

